Setup/v9/Assets/Themes/Kobe - Light/Delete.svg

<svg width="20" height="20" viewBox="0 0 20 20" fill="none" xmlns="http://www.w3.org/2000/svg">
<path fill-rule="evenodd" clip-rule="evenodd" d="M6.44189 2.5C6.44189 1.39543 7.33732 0.5 8.44189 0.5H11.4884C12.593 0.5 13.4884 1.39543 13.4884 2.5V2.81395C13.4884 2.84984 13.4846 2.88485 13.4774 2.9186H17.2134C17.218 2.91854 17.2225 2.91854 17.2271 2.9186H18.4302C18.7064 2.9186 18.9302 3.14246 18.9302 3.4186C18.9302 3.69474 18.7064 3.9186 18.4302 3.9186H17.6665L16.1079 17.4261C15.9624 18.6876 14.8943 19.6395 13.6244 19.6395H6.30571C5.03586 19.6395 3.96774 18.6876 3.82218 17.4261L2.26363 3.9186H1.5C1.22386 3.9186 1 3.69474 1 3.4186C1 3.14246 1.22386 2.9186 1.5 2.9186H2.70304C2.70761 2.91854 2.71216 2.91854 2.71671 2.9186H6.45286C6.44567 2.88485 6.44189 2.84984 6.44189 2.81395V2.5ZM7.43092 2.9186H12.4994C12.4922 2.88485 12.4884 2.84984 12.4884 2.81395V2.5C12.4884 1.94771 12.0407 1.5 11.4884 1.5H8.44189C7.88961 1.5 7.44189 1.94771 7.44189 2.5V2.81395C7.44189 2.84984 7.43811 2.88485 7.43092 2.9186ZM3.27026 3.9186L4.81559 17.3115C4.90292 18.0683 5.5438 18.6395 6.30571 18.6395H13.6244C14.3863 18.6395 15.0272 18.0683 15.1145 17.3115L16.6599 3.9186H3.27026ZM8.65112 7.2558C8.65112 6.97966 8.42727 6.7558 8.15112 6.7558C7.87498 6.7558 7.65112 6.97966 7.65112 7.2558L7.65112 14.5116C7.65112 14.7877 7.87498 15.0116 8.15112 15.0116C8.42727 15.0116 8.65112 14.7877 8.65112 14.5116L8.65112 7.2558ZM11.7791 6.7558C12.0552 6.7558 12.2791 6.97966 12.2791 7.2558V14.5116C12.2791 14.7877 12.0552 15.0116 11.7791 15.0116C11.5029 15.0116 11.2791 14.7877 11.2791 14.5116V7.2558C11.2791 6.97966 11.5029 6.7558 11.7791 6.7558Z" fill="black"/>
</svg>

<svg xmlns="http://www.w3.org/2000/svg" width="20" height="20" fill="none"><path fill="#000" fill-rule="evenodd" d="M6.442 2.5a2 2 0 0 1 2-2h3.046a2 2 0 0 1 2 2v.314c0 .036-.003.07-.01.105h4.952a.5.5 0 1 1 0 1h-.764l-1.558 13.507a2.5 2.5 0 0 1-2.484 2.214H6.306a2.5 2.5 0 0 1-2.484-2.214L2.264 3.92H1.5a.5.5 0 0 1 0-1h4.953a.502.502 0 0 1-.011-.105V2.5Zm.989.419h5.068a.501.501 0 0 1-.01-.105V2.5a1 1 0 0 0-1-1H8.441a1 1 0 0 0-1 1v.314c0 .036-.004.07-.011.105Zm-4.16 1L4.815 17.31a1.5 1.5 0 0 0 1.49 1.329h7.318a1.5 1.5 0 0 0 1.49-1.329L16.66 3.92H3.27Zm5.38 3.337a.5.5 0 1 0-1 0v7.256a.5.5 0 0 0 1 0V7.256Zm3.128-.5a.5.5 0 0 1 .5.5v7.256a.5.5 0 0 1-1 0V7.256a.5.5 0 0 1 .5-.5Z" clip-rule="evenodd"/></svg>
